dhis-2/dhis-support/dhis-support-system/src/main/resources/SVGs/llin_positive.svg

<?xml version="1.0" encoding="UTF-8" standalone="no"?>
<!-- Created with Inkscape (http://www.inkscape.org/) -->
<svg id="svg8" xmlns:rdf="http://www.w3.org/1999/02/22-rdf-syntax-ns#" xmlns="http://www.w3.org/2000/svg" xmlns:osb="http://www.openswatchbook.org/uri/2009/osb" height="48" width="48" version="1.1" xmlns:cc="http://creativecommons.org/ns#" viewBox="0 0 12.7 12.7" xmlns:dc="http://purl.org/dc/elements/1.1/">
 <title id="title4753">UIO-icon</title>
 <metadata id="metadata5">
  <rdf:RDF>
   <cc:Work rdf:about="">
    <dc:format>image/svg+xml</dc:format>
    <dc:type rdf:resource="http://purl.org/dc/dcmitype/StillImage"/>
    <dc:title>UIO-icon</dc:title>
    <dc:creator>
     <cc:Agent>
      <dc:title>Joaquín Urbano</dc:title>
     </cc:Agent>
    </dc:creator>
    <dc:rights>
     <cc:Agent>
      <dc:title>GPL</dc:title>
     </cc:Agent>
    </dc:rights>
   </cc:Work>
  </rdf:RDF>
 </metadata>
 <g id="layer1" fill="#333" transform="translate(0,-284.3)">
  <path id="path35869" d="m25.215 3.9688c-0.084212 0.02948-0.23685 0.30495-0.44336 0.80273-0.27884 0.67205-0.30304 0.789-0.29688 1.4453 0.005782 0.61689-0.068116 0.95969-0.18359 0.84961-0.018289-0.017424-0.045327-0.35954-0.060547-0.75977-0.027147-0.71223-0.10071-0.90827-0.33203-0.9043-0.21873 0.0054047-0.26018 0.16098-0.24023 0.87305 0.010948 0.39359-0.008149 0.74158-0.041016 0.77734-0.136 0.1433-0.218-0.1299-0.244-0.8086-0.025-0.669-0.055-0.776-0.383-1.4785-0.221-0.4746-0.386-0.7571-0.443-0.7558-0.14393 0.0028218-0.1074 0.13037 0.24023 0.87109 0.27696 0.58971 0.32593 0.76914 0.33984 1.2383 0.009021 0.30179-0.00033607 0.56802-0.019531 0.58789-0.058086 0.061002-0.32018-0.22841-0.72852-0.80469-0.35414-0.50057-0.51988-0.63619-0.55664-0.46094-0.008441 0.040218 0.12152 0.25594 0.28906 0.48047 0.41972 0.56332 0.42353 0.59715 0.070312 0.69531-0.73912 0.20601-0.93616 0.35066-0.73633 0.54102 0.050469 0.048087 0.55959 0.17666 1.1348 0.28516 0.575 0.10889 1.0557 0.23634 1.0684 0.28125 0.013234 0.051266-0.068313 0.15548-0.21094 0.26953-0.20506 0.16369-0.23353 0.22046-0.24414 0.48633-0.014756 0.36752-0.11006 0.60646-0.33594 0.8457-0.094157 0.099749-0.2065 0.24401-0.24805 0.32031-0.041283 0.075904-0.042428 0.1712-0.001953 0.21094 0.062167 0.059214 0.12485 0.0039939 0.40039-0.3457 0.34613-0.43905 0.44098-0.66073 0.41797-0.9707-0.007932-0.10531 0.024868-0.23158 0.072266-0.28125 0.14439-0.15173 0.32778 0.1015 0.35742 0.49414 0.042312 0.56185 0.2511 0.60492 0.24609 0.050781-0.001558-0.15924 0.05183-0.37519 0.11719-0.47852 0.10563-0.16771 0.13002-0.17744 0.23242-0.080078 0.062771 0.05989 0.1204 0.24484 0.12695 0.41016 0.010448 0.26121 0.057124 0.35647 0.36719 0.73242 0.23619 0.28629 0.39019 0.43315 0.45312 0.43164 0.14433-0.0036559 0.042592-0.22197-0.28125-0.60547-0.241-0.2851-0.287-0.3932-0.31-0.6953-0.027-0.334-0.043-0.3668-0.295-0.5507-0.235-0.1709-0.259-0.2073-0.186-0.2833 0.04615-0.04769 0.52156-0.19347 1.0586-0.32422 0.56816-0.13869 1.0104-0.28639 1.0566-0.35156 0.127-0.1775-0.053-0.3168-0.543-0.4257-0.249-0.0553-0.469-0.1208-0.492-0.1406-0.022-0.0215 0.025-0.1344 0.104-0.252 0.316-0.4704 0.486-0.8073 0.447-0.8828-0.058-0.1074-0.228 0.0874-0.654 0.7539-0.33 0.516-0.475 0.6739-0.553 0.5996-0.018-0.0173-0.034-0.2781-0.037-0.5762-0.004-0.4548 0.041-0.6581 0.287-1.2675 0.1614-0.39931 0.28772-0.76111 0.27734-0.79688-0.01203-0.045842-0.034434-0.062566-0.0625-0.052734zm-17.44 0.0195c-0.1797 0.0070299-0.044601 0.6158 0.38672 1.7363 0.49914 1.2967 0.61955 1.4889 1.4922 2.3887 0.82039 0.84584 1.1658 1.4121 0.86133 1.4121-0.048222 0-0.53601-0.43543-1.084-0.96875-0.9753-0.9496-1.3342-1.1269-1.6464-0.8145-0.2955 0.2955-0.1507 0.5668 0.8144 1.5254 0.53327 0.5297 0.96875 1.0383 0.96875 1.1289 0 0.37773-0.47475 0.10774-1.4043-0.79688-0.9161-0.8915-1.0964-1.0048-2.4745-1.5449-0.9309-0.365-1.5305-0.5353-1.6075-0.459-0.1954 0.1936 0.0225 0.3242 1.4785 0.8906 1.1596 0.4511 1.4628 0.6335 2.0997 1.2637 0.4096 0.405 0.746 0.785 0.746 0.84 0 0.16135-0.7448 0.10481-2.0684-0.1543-1.1467-0.22453-1.5547-0.1952-1.375 0.095703 0.041315 0.066765 0.50555 0.19495 1.0332 0.28516 1.322 0.22616 1.3709 0.26587 1.0117 0.86719-0.7511 1.257-0.8353 1.722-0.3085 1.722 0.13306 0 1.0107-0.49668 1.9492-1.1035 0.93854-0.6068 1.7691-1.0668 1.8457-1.0195 0.085474 0.052815 0.10983 0.30505 0.0625 0.65039-0.068045 0.49632-0.032637 0.61614 0.30273 0.99805 0.46348 0.52783 0.64779 0.98462 0.65039 1.6133 0.00096944 0.26205 0.0372 0.60547 0.080078 0.76562 0.042872 0.16015 0.16673 0.29297 0.27344 0.29297 0.16388 0 0.17865-0.15572 0.099609-1.002-0.099309-1.0631-0.25937-1.4984-0.69922-1.8965-0.14948-0.13516-0.27148-0.35323-0.27148-0.48438 0-0.39995 0.58677-0.28907 1.1445 0.21484 0.79819 0.72113 1.1447 0.50402 0.4082-0.25586-0.21192-0.21865-0.42292-0.58555-0.46875-0.81445-0.07476-0.37368-0.053176-0.41602 0.2168-0.41602 0.16548 0 0.48608 0.17867 0.71289 0.39844 0.35838 0.34737 0.55294 0.41567 1.4766 0.52734 0.70374 0.085164 1.1064 0.086998 1.1914 0.001953 0.19487-0.19505-0.23477-0.36307-1.1875-0.4668-0.70851-0.077257-0.91027-0.16252-1.3398-0.55078-0.47572-0.4296-0.54679-0.45369-1.1387-0.375-0.55005 0.073122-0.62666 0.056952-0.625-0.14453 0.00104-0.12685 0.46859-0.95961 1.0391-1.8477 0.60356-0.93955 1.0197-1.7236 0.99805-1.875-0.059021-0.41179-0.49182-0.36929-1.3125 0.125-0.41746 0.25168-0.80791 0.45703-0.86719 0.45703-0.059261 0-0.14598-0.21771-0.19141-0.48438-0.18178-1.0672-0.38762-1.762-0.54102-1.8125-0.22129-0.072446-0.19941 0.42082 0.087891 1.9043 0.22247 1.1486 0.22743 1.5566 0.021484 1.5566-0.047947 0-0.41021-0.33338-0.80664-0.74219-0.6046-0.6232-0.8097-0.9693-1.2714-2.1363-0.3028-0.7652-0.6026-1.4232-0.6661-1.4629-0.0384-0.0238-0.0719-0.0343-0.0976-0.0332zm36.037 4.1328c-0.57723 0.0060009-1.1542 0.026189-1.7305 0.060547-0.057952 0.0037635-0.1159 0.0076697-0.17383 0.011719l0.056641 1.2246c0.51773-0.030701 1.0361-0.049586 1.5547-0.056641 0.155 0.0074058 0.30996 0.01587 0.46484 0.025391l0.016-1.2579c-0.062493-0.0027701-0.12499-0.0053742-0.1875-0.0078125zm-4.248 0.2461c-0.4 0.0478-0.799 0.1025-1.197 0.164-0.289 0.0401-0.578 0.0837-0.867 0.1309l0.21289 1.2402c0.66109-0.11528 1.3254-0.21103 1.9922-0.28711zm-4.369 0.7851c-0.14475 0.034241-0.28929 0.069398-0.43359 0.10547-0.45736 0.10745-0.91252 0.22401-1.3652 0.34961-0.14485 0.049189-0.28939 0.09932-0.43359 0.15039l0.39844 1.2695c0.70518-0.2335 1.4178-0.4439 2.1367-0.63086zm-4.459 1.3926c-0.21494 0.075402-0.42914 0.15288-0.64258 0.23242-0.48078 0.21134-0.95681 0.4334-1.4277 0.66602l0.54688 1.1855c0.65254-0.31596 1.315-0.61103 1.9863-0.88477zm-4.1953 1.9531c-0.68624 0.37784-1.3598 0.77845-2.0195 1.2012l0.70117 1.1094c0.636-0.405 1.287-0.789 1.949-1.152zm-3.967 2.564c-0.44961 0.31709-0.89178 0.64465-1.3262 0.98242-0.029984 0.022739-0.059932 0.045525-0.089844 0.068359-0.11394 0.10148-0.22722 0.20369-0.33984 0.30664l0.875 1.0586c0.54044-0.46653 1.0954-0.91597 1.6641-1.3477zm7.8359 0.097656c-4.1187-0.00006668-7.458 3.3383-7.459 7.457-0.00006657 4.1195 3.3395 7.4591 7.459 7.459 4.1195 0.00006657 7.4591-3.3395 7.459-7.459-0.001012-4.1187-3.3402-7.4571-7.459-7.457zm-11.357 2.8613c-0.17009 0.15136-0.33871 0.30436-0.50586 0.45898-0.3649 0.38579-0.72111 0.77977-1.0684 1.1816l0.98047 0.9082c0.48416-0.5459 0.98572-1.0761 1.5039-1.5898zm-3.1406 3.4434c-0.48218 0.62563-0.94338 1.2673-1.3828 1.9238l1.0586 0.75c0.4352-0.62446 0.89118-1.2342 1.3672-1.8281zm-8.2558 0.991c-0.12128-0.004611-0.25577 0.16475-0.41016 0.50781-0.1047 0.233-0.2127 0.441-0.2382 0.457-0.0255 0.018-0.1273-0.051-0.2266-0.152-0.3965-0.406-0.6915-0.643-0.7734-0.62-0.11686 0.034847 0.039303 0.24018 0.60547 0.79297 0.43827 0.42809 0.56325 0.60247 0.47461 0.66406-0.020637 0.014324-0.27595-0.020495-0.56836-0.078125-0.4462-0.088-0.6386-0.176-1.1855-0.541-0.3585-0.239-0.684-0.434-0.7227-0.431-0.18929 0.009978 0.038673 0.24436 0.63281 0.64844 0.60163 0.40929 0.7115 0.45526 1.3555 0.58203 0.6054 0.11922 0.92205 0.26056 0.79102 0.35156-0.020756 0.014702-0.35892-0.027363-0.75391-0.09375-0.70302-0.11763-0.91199-0.087088-0.95312 0.14062-0.039053 0.21532 0.10334 0.28928 0.80469 0.41406 0.38759 0.06915 0.72672 0.15753 0.75391 0.19727 0.11266 0.16254-0.17191 0.18629-0.8418 0.074219-0.6604-0.111-0.7711-0.105-1.5254 0.073-0.50951 0.12081-0.81983 0.22521-0.83008 0.28125-0.02642 0.14148 0.10655 0.13372 0.90234-0.056641 0.63361-0.15141 0.81902-0.1635 1.2812-0.082031 0.29723 0.052456 0.55641 0.11287 0.57227 0.13672 0.047991 0.069267-0.29042 0.26978-0.9375 0.55273-0.56033 0.24584-0.72851 0.37768-0.56445 0.44922 0.037702 0.016705 0.27721-0.065166 0.53125-0.18359 0.63652-0.29686 0.67059-0.29335 0.69531 0.072266 0.051949 0.76556 0.15216 0.98745 0.37891 0.83008 0.057267-0.0397 0.28692-0.51342 0.50977-1.0547 0.22301-0.54103 0.44366-0.98502 0.49023-0.98828 0.052624-0.002383 0.14004 0.098783 0.22266 0.26172 0.1188 0.234 0.1695 0.274 0.4277 0.338 0.35692 0.088898 0.57316 0.23211 0.76172 0.50195 0.078213 0.11203 0.19535 0.24629 0.26172 0.30273 0.065989 0.056035 0.1572 0.078668 0.20312 0.046875 0.07054-0.048881 0.032539-0.12232-0.25391-0.46289-0.3598-0.428-0.559-0.566-0.8671-0.606-0.1047-0.013-0.2207-0.07-0.2598-0.127-0.1193-0.172 0.1663-0.302 0.5566-0.252 0.5588 0.073 0.6413-0.125 0.0977-0.232-0.1564-0.031-0.3553-0.124-0.4434-0.209-0.1428-0.138-0.1474-0.164-0.0312-0.244 0.071222-0.048484 0.26447-0.068833 0.42773-0.041016 0.25792 0.04292 0.36021 0.014448 0.79102-0.21289 0.3281-0.173 0.5021-0.294 0.5131-0.356 0.025692-0.14187-0.21128-0.08534-0.65234 0.1543-0.32803 0.18003-0.43772 0.20185-0.73828 0.16211-0.3322-0.041726-0.37013-0.032494-0.60156 0.17773-0.21501 0.19552-0.25495 0.21243-0.31445 0.125-0.0369-0.054-0.0837-0.551-0.1031-1.103-0.0205-0.584-0.0745-1.047-0.1289-1.105-0.037-0.04-0.0767-0.063-0.1172-0.065zm5.582 2.9434c-0.38007 0.65753-0.73898 1.3271-1.0762 2.0078l1.1543 0.60938c0.32752-0.65427 0.676-1.2978 1.0449-1.9297zm-2.1035 4.168c-0.30409 0.7229-0.58419 1.4557-0.83984 2.1973l1.1934 0.44141c0.24463-0.71576 0.51301-1.4232 0.80469-2.1211zm11.791 1.7734c-3.4512 0-6.2343 2.7445-6.3066 6.1777h-0.005859v6.4453h27.387v-6.4453h-0.005859c-0.072387-3.4332-2.8535-6.1777-6.3047-6.1777zm-13.372 2.7c-0.20985 0.71072-0.39744 1.4279-0.5625 2.1504l1.2559 0.28906c0.15331-0.69804 0.32853-1.3911 0.52539-2.0781zm-0.9785 4.51c-0.064719 0.41691-0.12202 0.83494-0.17188 1.2539-0.036176 0.26329-0.069381 0.52698-0.099609 0.79102-0.0036957 0.1022-0.0069509 0.20441-0.0097656 0.30664l1.3027 0.12305c0.059273-0.75913 0.14396-1.5161 0.25391-2.2695zm-0.3711 4.742c-0.0067968 0.14905-0.012656 0.29814-0.017578 0.44727 0.0042242 0.088558 0.0087815 0.1771 0.013672 0.26562l1.2383-0.014c-0.0078907-0.17703-0.014401-0.35412-0.019531-0.53125 0.0031636-0.045579 0.0064188-0.091152 0.0097656-0.13672z" transform="matrix(.26458 0 0 .26458 0 284.3)" stroke-width=".11389"/>
 </g>
</svg>

<svg width="48" height="48" viewBox="0 0 48 48" fill="none" xmlns="http://www.w3.org/2000/svg">
<path d="M25.2146 3.96886C25.1304 3.99834 24.9778 4.27381 24.7712 4.77158C24.4924 5.44363 24.4682 5.56057 24.4744 6.21687C24.4801 6.83375 24.4063 7.17654 24.2908 7.06646C24.2725 7.04904 24.2455 6.70693 24.2302 6.3067C24.2031 5.59448 24.1295 5.39845 23.8982 5.40242C23.6795 5.40782 23.638 5.56339 23.658 6.27545C23.6689 6.66904 23.6498 7.01703 23.617 7.05278C23.481 7.19608 23.399 6.92289 23.373 6.2442C23.348 5.5752 23.318 5.4682 22.99 4.76571C22.769 4.29112 22.604 4.00862 22.547 4.00992C22.403 4.01274 22.4396 4.14029 22.7872 4.881C23.0642 5.4707 23.1131 5.65013 23.127 6.11929C23.1361 6.42107 23.1267 6.6873 23.1075 6.70717C23.0494 6.76817 22.7873 6.47876 22.379 5.90249C22.0249 5.40193 21.8591 5.26631 21.8224 5.44156C21.8139 5.48177 21.9439 5.69749 22.1114 5.92202C22.5311 6.48533 22.5349 6.51916 22.1817 6.61732C21.4426 6.82333 21.2456 6.96798 21.4454 7.15833C21.4959 7.20642 22.005 7.33499 22.5802 7.44349C23.1552 7.55238 23.6359 7.67983 23.6486 7.72474C23.6618 7.776 23.5803 7.88021 23.4376 7.99426C23.2326 8.15795 23.2041 8.21472 23.1935 8.48059C23.1788 8.8481 23.0835 9.08704 22.8576 9.32628C22.7634 9.42602 22.6511 9.57028 22.6095 9.64658C22.5682 9.72249 22.5671 9.81778 22.6076 9.85752C22.6697 9.91673 22.7324 9.86151 23.008 9.51182C23.3541 9.07278 23.4489 8.8511 23.4259 8.54114C23.418 8.43583 23.4508 8.30956 23.4982 8.25989C23.6426 8.10816 23.826 8.36139 23.8556 8.75402C23.8979 9.31587 24.1067 9.35894 24.1017 8.8048C24.1001 8.64557 24.1535 8.42962 24.2189 8.32629C24.3245 8.15858 24.3489 8.14885 24.4513 8.24621C24.5141 8.3061 24.5717 8.49105 24.5782 8.65637C24.5887 8.91757 24.6354 9.01283 24.9454 9.38878C25.1816 9.67507 25.3356 9.82192 25.3985 9.82041C25.5429 9.81676 25.4411 9.59845 25.1173 9.21495C24.8763 8.92985 24.8303 8.82176 24.8073 8.51966C24.7803 8.18566 24.7643 8.15286 24.5123 7.96897C24.2773 7.79807 24.2533 7.76167 24.3263 7.68567C24.3725 7.63798 24.8479 7.4922 25.3849 7.36145C25.9531 7.22277 26.3953 7.07507 26.4415 7.0099C26.5685 6.8324 26.3885 6.6931 25.8985 6.5842C25.6495 6.5289 25.4295 6.46341 25.4065 6.44361C25.3845 6.42211 25.4315 6.30921 25.5105 6.19161C25.8265 5.72121 25.9965 5.38432 25.9575 5.30882C25.8995 5.20142 25.7295 5.39622 25.3035 6.06271C24.9735 6.5787 24.8285 6.7366 24.7505 6.6623C24.7325 6.645 24.7165 6.38421 24.7135 6.08611C24.7095 5.63132 24.7545 5.42802 25.0005 4.81863C25.1619 4.41932 25.2882 4.05753 25.2778 4.02176C25.2658 3.97591 25.2434 3.95919 25.2153 3.96902L25.2146 3.96886ZM7.77482 3.98836C7.59512 3.99539 7.73022 4.60416 8.16153 5.72464C8.66067 7.02132 8.78108 7.21352 9.65371 8.11331C10.4741 8.95914 10.8195 9.52539 10.515 9.52539C10.4668 9.52539 9.97903 9.08997 9.43105 8.55666C8.45576 7.60707 8.09686 7.42977 7.78467 7.74217C7.48917 8.03766 7.63397 8.30896 8.59906 9.26755C9.13232 9.79724 9.5678 10.3058 9.5678 10.3964C9.5678 10.7742 9.09305 10.5042 8.16351 9.59956C7.24742 8.70807 7.06713 8.59478 5.68904 8.05468C4.75816 7.68969 4.15856 7.51939 4.08156 7.59569C3.88617 7.78929 4.10406 7.91988 5.56005 8.48628C6.71963 8.93737 7.02283 9.11977 7.65972 9.74996C8.06931 10.155 8.40571 10.535 8.40571 10.5899C8.40571 10.7513 7.66092 10.6948 6.33734 10.4357C5.19065 10.2111 4.78266 10.2405 4.96235 10.5314C5.00367 10.5981 5.4679 10.7263 5.99554 10.8165C7.31752 11.0427 7.36642 11.0824 7.00723 11.6837C6.25614 12.9407 6.17194 13.4057 6.69873 13.4057C6.83179 13.4057 7.70942 12.909 8.64791 12.3022C9.58643 11.6954 10.417 11.2354 10.4936 11.2827C10.5791 11.3355 10.6034 11.5877 10.5561 11.9331C10.488 12.4294 10.5234 12.5492 10.8588 12.9311C11.3223 13.4589 11.5066 13.9157 11.5092 14.5444C11.5102 14.8064 11.5464 15.1499 11.5893 15.31C11.6321 15.4702 11.756 15.603 11.8627 15.603C12.0266 15.603 12.0414 15.4473 11.9623 14.601C11.863 13.5379 11.7029 13.1026 11.2631 12.7045C11.1136 12.5693 10.9916 12.3513 10.9916 12.2201C10.9916 11.8202 11.5784 11.9311 12.1361 12.435C12.9343 13.1561 13.2808 12.939 12.5443 12.1791C12.3324 11.9605 12.1214 11.5936 12.0756 11.3647C12.0008 10.991 12.0224 10.9487 12.2924 10.9487C12.4578 10.9487 12.7784 11.1273 13.0052 11.3471C13.3636 11.6945 13.5582 11.7628 14.4818 11.8744C15.1856 11.9596 15.5882 11.9614 15.6732 11.8764C15.8681 11.6813 15.4384 11.5133 14.4857 11.4096C13.7772 11.3323 13.5755 11.2471 13.1459 10.8588C12.6702 10.4292 12.5992 10.4051 12.0073 10.4838C11.4572 10.5569 11.3806 10.5408 11.3823 10.3393C11.3833 10.2124 11.8508 9.37969 12.4213 8.49161C13.0249 7.55207 13.441 6.76803 13.4194 6.61664C13.3604 6.20485 12.9276 6.24735 12.1069 6.74164C11.6894 6.99331 11.299 7.19866 11.2397 7.19866C11.1805 7.19866 11.0937 6.98095 11.0483 6.71428C10.8665 5.6471 10.6607 4.95231 10.5073 4.90181C10.286 4.82936 10.3079 5.32262 10.5952 6.80608C10.8177 7.95467 10.8226 8.36266 10.6167 8.36266C10.5687 8.36266 10.2065 8.02929 9.81004 7.62048C9.20545 6.99729 9.00035 6.6512 8.53866 5.48421C8.23586 4.71902 7.93607 4.06103 7.87257 4.02133C7.83417 3.99753 7.80067 3.98703 7.77497 3.98813L7.77482 3.98836ZM43.8114 8.12111C43.2341 8.12711 42.6572 8.1473 42.0809 8.18166C42.0229 8.18542 41.965 8.18933 41.9071 8.19338L41.9637 9.41796C42.4814 9.38726 42.9998 9.36838 43.5184 9.36132C43.6734 9.36873 43.8283 9.37719 43.9832 9.38671L43.9992 8.12883C43.9367 8.12606 43.8742 8.12345 43.8117 8.12101L43.8114 8.12111ZM39.5634 8.36721C39.1634 8.41501 38.7644 8.46971 38.3664 8.53121C38.0774 8.57131 37.7884 8.6149 37.4994 8.6621L37.7123 9.90229C38.3734 9.78701 39.0377 9.69126 39.7045 9.61518L39.5634 8.36721ZM35.1945 9.1523C35.0497 9.18654 34.9052 9.22169 34.7609 9.25777C34.3035 9.36521 33.8484 9.48177 33.3957 9.60737C33.2509 9.65656 33.1063 9.70669 32.9621 9.75776L33.3606 11.0272C34.0657 10.7937 34.7783 10.5834 35.4972 10.3964L35.1945 9.1523ZM30.7355 10.5449C30.5206 10.6203 30.3064 10.6978 30.093 10.7773C29.6122 10.9886 29.1362 11.2107 28.6653 11.4433L29.2121 12.6288C29.8647 12.3128 30.5271 12.0178 31.1984 11.744L30.7355 10.5449ZM26.5403 12.498C25.8541 12.8758 25.1805 13.2764 24.5208 13.6991L25.222 14.8085C25.858 14.4035 26.509 14.0195 27.1709 13.6565L26.5403 12.498ZM22.5733 15.0619C22.1237 15.379 21.6816 15.7066 21.2471 16.0443C21.2172 16.0671 21.1872 16.0899 21.1573 16.1127C21.0434 16.2142 20.9301 16.3164 20.8175 16.4193L21.6925 17.4779C22.2329 17.0114 22.7878 16.562 23.3565 16.1302L22.5733 15.0619ZM30.4091 15.1596C26.2905 15.1595 22.9512 18.4978 22.9502 22.6165C22.9502 26.7359 26.2897 30.0755 30.4091 30.0754C34.5286 30.0755 37.8681 26.7359 37.868 22.6165C37.867 18.4978 34.5279 15.1595 30.4091 15.1596ZM19.0523 18.0208C18.8822 18.1722 18.7136 18.3252 18.5464 18.4798C18.1815 18.8656 17.8253 19.2596 17.478 19.6614L18.4585 20.5696C18.9426 20.0237 19.4442 19.4935 19.9624 18.9798L19.0523 18.0208ZM15.9117 21.4642C15.4295 22.0898 14.9683 22.7315 14.5289 23.388L15.5875 24.138C16.0227 23.5135 16.4787 22.9038 16.9547 22.3099L15.9117 21.4642ZM7.65602 22.4552C7.53474 22.4506 7.40025 22.6199 7.24586 22.963C7.14117 23.196 7.03317 23.404 7.00767 23.42C6.98217 23.438 6.88037 23.369 6.78107 23.268C6.38457 22.862 6.08958 22.625 6.00768 22.648C5.89082 22.6828 6.04698 22.8882 6.61314 23.441C7.05141 23.869 7.17639 24.0434 7.08775 24.105C7.06711 24.1193 6.8118 24.0845 6.51939 24.0269C6.0732 23.9389 5.8808 23.8509 5.33391 23.4859C4.97541 23.2469 4.64992 23.0519 4.61122 23.0549C4.42193 23.0649 4.64989 23.2993 5.24402 23.7033C5.84564 24.1126 5.95551 24.1586 6.5995 24.2853C7.20489 24.4046 7.52154 24.5459 7.39051 24.6369C7.36976 24.6516 7.0316 24.6095 6.63661 24.5432C5.9336 24.4255 5.72463 24.4561 5.6835 24.6838C5.64445 24.8991 5.78684 24.973 6.48818 25.0978C6.87577 25.167 7.21489 25.2554 7.24208 25.2951C7.35474 25.4576 7.07018 25.4814 6.40029 25.3693C5.7399 25.2583 5.6292 25.2643 4.87491 25.4423C4.36541 25.5631 4.05509 25.6675 4.04484 25.7236C4.01842 25.865 4.15139 25.8573 4.94717 25.6669C5.58077 25.5155 5.76618 25.5034 6.22836 25.5849C6.52558 25.6373 6.78476 25.6978 6.80062 25.7216C6.84861 25.7909 6.5102 25.9914 5.86313 26.2743C5.30281 26.5202 5.13463 26.652 5.29869 26.7235C5.33639 26.7403 5.5759 26.6584 5.82993 26.54C6.46644 26.2431 6.50051 26.2466 6.52523 26.6122C6.57718 27.3778 6.67739 27.5997 6.90414 27.4423C6.9614 27.4026 7.19106 26.9289 7.4139 26.3876C7.63691 25.8466 7.85756 25.4026 7.90413 25.3993C7.95675 25.397 8.04416 25.4981 8.12678 25.6611C8.24558 25.8951 8.29628 25.9351 8.55448 25.999C8.91139 26.0879 9.12763 26.2312 9.31619 26.501C9.3944 26.613 9.51154 26.7473 9.5779 26.8037C9.64389 26.8598 9.7351 26.8824 9.78102 26.8506C9.85156 26.8017 9.81356 26.7283 9.52712 26.3877C9.16732 25.9597 8.96812 25.8217 8.66003 25.7817C8.55533 25.7687 8.43933 25.7117 8.40023 25.6547C8.28093 25.4827 8.56653 25.3527 8.95682 25.4027C9.51562 25.4757 9.59811 25.2777 9.05452 25.1707C8.89812 25.1397 8.69923 25.0467 8.61113 24.9617C8.46833 24.8237 8.46373 24.7977 8.57993 24.7177C8.65115 24.6692 8.84439 24.6489 9.00765 24.6767C9.26557 24.7196 9.36786 24.6912 9.79866 24.4638C10.1268 24.2908 10.3008 24.1698 10.3118 24.1078C10.3374 23.966 10.1005 24.0225 9.65942 24.2621C9.3314 24.4422 9.22171 24.464 8.92115 24.4242C8.58896 24.3825 8.55103 24.3917 8.3196 24.602C8.10459 24.7975 8.06465 24.8144 8.00515 24.727C7.96825 24.673 7.92146 24.176 7.90206 23.624C7.88156 23.04 7.82756 22.577 7.77316 22.519C7.73616 22.479 7.69646 22.456 7.65596 22.454L7.65602 22.4552ZM13.2379 25.3985C12.8579 26.0561 12.499 26.7256 12.1618 27.4063L13.316 28.0157C13.6436 27.3614 13.992 26.7179 14.3609 26.086L13.2379 25.3985ZM11.1345 29.5665C10.8304 30.2894 10.5503 31.0222 10.2946 31.7638L11.488 32.2052C11.7327 31.4894 12.001 30.782 12.2927 30.0841L11.1345 29.5665ZM22.9253 31.3399C19.4742 31.3399 16.6911 34.0843 16.6188 37.5175H16.6129V43.9627H43.9996V37.5175H43.9937C43.9214 34.0843 41.1403 31.3399 37.6891 31.3399H22.9253ZM9.5535 34.0398C9.34365 34.7506 9.15606 35.4677 8.991 36.1902L10.2469 36.4793C10.4002 35.7812 10.5754 35.0882 10.7723 34.4012L9.5535 34.0398ZM8.57501 38.5498C8.51029 38.9667 8.45299 39.3847 8.40313 39.8037C8.36695 40.067 8.33375 40.3306 8.30352 40.5947C8.29983 40.6969 8.29657 40.7991 8.29376 40.9013L9.59644 41.0244C9.65571 40.2652 9.7404 39.5083 9.85035 38.7549L8.57501 38.5498ZM8.20391 43.2917C8.19712 43.4408 8.19126 43.5899 8.18633 43.739C8.19056 43.8275 8.19512 43.9161 8.20001 44.0046L9.43829 43.9906C9.4304 43.8136 9.42389 43.6365 9.41876 43.4594C9.42192 43.4138 9.42518 43.3682 9.42853 43.3226L8.20391 43.2917Z" fill="#333333"/>
</svg>
